packages/dnb-eufemia/assets/icons/people_2_medium.svg

<svg width="24" height="24" viewBox="0 0 24 24" fill="none" xmlns="http://www.w3.org/2000/svg">
<path d="M1 18.0753C1.00152 15.966 2.01247 13.9849 3.71952 12.7459C4.85787 11.9197 6.21406 11.49 7.58618 11.4889C8.27166 11.4884 8.96112 11.5948 9.62937 11.8121M4.11747 2.98171C5.37702 4.28761 7.11347 5.02517 8.92782 5.02489C9.83776 5.0255 10.7382 4.84023 11.574 4.48043M10.7113 22.0189C10.7127 20.0268 11.6562 18.1557 13.2495 16.9855C14.3112 16.2058 15.5759 15.8001 16.8556 15.7984C18.1353 15.8001 19.4001 16.2058 20.4618 16.9855C22.055 18.1557 22.9986 20.0268 23 22.0189M20.3086 8.8852C18.9053 9.84428 17.3223 10.1925 15.6659 9.83593C14.8351 9.65782 14.0789 9.38666 13.3857 8.89016M11.6111 5.02489C11.6111 7.24778 9.80907 9.04978 7.58618 9.04978C5.3633 9.04978 3.56129 7.24778 3.56129 5.02489C3.56129 2.80201 5.3633 1 7.58618 1C9.80907 1 11.6111 2.80201 11.6111 5.02489ZM20.6122 9.63929C20.6122 11.7387 18.9303 13.4406 16.8556 13.4406C14.7809 13.4406 13.0991 11.7387 13.0991 9.63929C13.0991 7.53989 14.7809 5.838 16.8556 5.838C18.9303 5.838 20.6122 7.53989 20.6122 9.63929Z" stroke="black" stroke-width="1.5" stroke-linecap="round" stroke-linejoin="round"/>
</svg>

<svg width="24" height="24" viewBox="0 0 24 24" fill="none" xmlns="http://www.w3.org/2000/svg"><path d="M1 18.075a6.591 6.591 0 0 1 8.63-6.263m-5.513-8.83a6.682 6.682 0 0 0 7.457 1.498m-.863 17.539a6.249 6.249 0 0 1 2.538-5.034 6.103 6.103 0 0 1 3.607-1.187 6.104 6.104 0 0 1 3.606 1.187A6.249 6.249 0 0 1 23 22.02M20.309 8.885c-1.404.96-2.987 1.308-4.643.95-.83-.177-1.587-.448-2.28-.945M11.61 5.025a4.025 4.025 0 1 1-8.05 0 4.025 4.025 0 0 1 8.05 0Zm9.001 4.614c0 2.1-1.682 3.802-3.756 3.802-2.075 0-3.757-1.702-3.757-3.802s1.682-3.801 3.757-3.801c2.074 0 3.756 1.702 3.756 3.801Z" stroke="#000" stroke-width="1.5" stroke-linecap="round" stroke-linejoin="round"/></svg>
